src/assets/images/icons/header/textbook.svg

<svg fill="#fff" height="50" viewBox="0 0 512 512" width="50" xmlns="http://www.w3.org/2000/svg"><path d="m464 64v416h-384c-17.672 0-32-14.312-32-32s14.328-32 32-32h352v-416h-352c-35.344 0-64 28.656-64 64v384c0 35.344 28.656 64 64 64h416v-448zm-384 64v-96h320v352h-320zm256-32h-192v-32h192zm-64 64h-128v-32h128zm-64 64h-64v-32h64z"/></svg>

<svg class="page-header__icon-textbook" xmlns="http://www.w3.org/2000/svg" width="50" height="50" fill="#fff" viewBox="0 0 512 512"><path d="M464 64v416H80c-17.672 0-32-14.312-32-32s14.328-32 32-32h352V0H80C44.656 0 16 28.656 16 64v384c0 35.344 28.656 64 64 64h416V64h-32zM80 128V32h320v352H80V128zm256-32H144V64h192v32zm-64 64H144v-32h128v32zm-64 64h-64v-32h64v32z"/></svg>
